X:0807
T:New Castle Troop.
S:Aird v5 p2
M:3/8
L:1/16
Q:3/8=60
I: :: H:: ::S DC % no matching initial segno
P:ABA % Aird prints a da capo
Z:Jack Campin * www.campin.me.uk * 2009
K:D
P:A
 A2 |d2d2d2|e2efge|f2d2d2|edcBA2|d2d2d2|e2efge|f2dfec|d4:|
(cd)|e2egfd|e2egfd|e2egfd|e2dcBA|a2egfd|a2egfd|a2egfe|d4:|
P:B
 a2 |a4  f2|f4  d2|e2efge|f2d2a2|a4  f2|f4  d2|e2edef|d4:|
(ef)|g2gefd|c2cedf|g2gefd|e4  a2|a4  f2|f4  d2|e2edef|d4:|

